src/assets/fb3.svg

<svg width="37" height="37" viewBox="0 0 37 37" fill="none" xmlns="http://www.w3.org/2000/svg">
<rect width="37" height="37" rx="8" fill="#156AD9"/>
<path d="M29 18.5263C29 12.7158 24.296 8 18.5 8C12.704 8 8 12.7158 8 18.5263C8 23.6211 11.612 27.8632 16.4 28.8421V21.6842H14.3V18.5263H16.4V15.8947C16.4 13.8632 18.0485 12.2105 20.075 12.2105H22.7V15.3684H20.6C20.0225 15.3684 19.55 15.8421 19.55 16.4211V18.5263H22.7V21.6842H19.55V29C24.8525 28.4737 29 23.9895 29 18.5263Z" fill="white"/>
</svg>

<svg xmlns="http://www.w3.org/2000/svg" width="37" height="37" fill="none" viewBox="0 0 37 37"><rect width="37" height="37" fill="#156ad9" rx="8"/><path fill="#fff" d="M29 18.526C29 12.716 24.296 8 18.5 8S8 12.716 8 18.526a10.53 10.53 0 0 0 8.4 10.316v-7.158h-2.1v-3.158h2.1v-2.631a3.684 3.684 0 0 1 3.675-3.684H22.7v3.157h-2.1c-.578 0-1.05.474-1.05 1.053v2.105h3.15v3.158h-3.15V29c5.302-.526 9.45-5.01 9.45-10.474"/></svg>
